modules/hawcons-stroke/icons/cloud-sun-snowflakes.svg

<?xml version="1.0" encoding="UTF-8" standalone="no"?>
<svg width="32px" height="32px" viewBox="0 0 32 32" version="1.1" xmlns="http://www.w3.org/2000/svg" xmlns:xlink="http://www.w3.org/1999/xlink" xmlns:sketch="http://www.bohemiancoding.com/sketch/ns">
    <!-- Generator: Sketch 3.0.3 (7891) - http://www.bohemiancoding.com/sketch -->
    <title>icon 18 cloud sun snowflakes</title>
    <desc>Created with Sketch.</desc>
    <defs></defs>
    <g id="Page-1" stroke="none" stroke-width="1" fill="none" fill-rule="evenodd" sketch:type="MSPage">
        <g id="icon-18-cloud-sun-snowflakes" sketch:type="MSArtboardGroup" fill="#929292">
            <path d="M7.10100919,15.1021544 C5.32460991,15.5117359 4,17.1046097 4,19 C4,21.209139 5.79793835,23 8.00281647,23 L24.9971835,23 C27.207878,23 29,21.2046438 29,19 C29,17.1225574 27.70144,15.5472159 25.9581226,15.1164746 L25.9581226,15.1164746 C25.9857342,14.9149284 26,14.7091302 26,14.5 C26,12.0147185 23.9852815,10 21.5,10 C20.2744589,10 19.1633432,10.489913 18.3518132,11.2845787 C17.3608691,9.33540592 15.336385,8 13,8 C9.68629134,8 7,10.6862913 7,14 C7,14.3764904 7.03467626,14.7448817 7.10100919,15.1021544 L7.10100919,15.1021544 Z M24.9534131,10.2191122 C24.984146,9.983761 25,9.74373194 25,9.5 C25,6.46243373 22.5375663,4 19.5,4 C17.2971895,4 15.3968409,5.29499266 14.5187269,7.16520533 L14.5187269,7.16520533 C14.0297369,7.0570341 13.521529,7 13,7 C9.13400656,7 6,10.1340066 6,14 C6,14.1381509 6.00400207,14.275367 6.01189661,14.4115388 C4.23965876,15.1816085 3,16.9491311 3,19 C3,21.7614237 5.23249418,24 7.99943992,24 L25.0005601,24 C27.7616745,24 30,21.7558048 30,19 C30,16.9483386 28.7676457,15.1852931 26.9993494,14.4145295 C26.9735292,12.7196655 26.1810757,11.2107183 24.9534131,10.2191122 L24.9534131,10.2191122 L24.9534131,10.2191122 Z M23.998929,9.5991622 C23.9996418,9.56619424 24,9.53313895 24,9.5 C24,7.0147185 21.9852815,5 19.5,5 C17.7507549,5 16.2346236,5.99807813 15.4900199,7.45582047 C16.7434413,7.93301046 17.8243683,8.75995689 18.6135384,9.81739735 C19.4525719,9.29909701 20.441357,9 21.5,9 C22.399795,9 23.2491234,9.21607283 23.998929,9.5991622 L23.998929,9.5991622 L23.998929,9.5991622 Z M11,26.6339746 L11,25.4976988 C11,25.2228273 10.7680664,25 10.5,25 C10.2238576,25 10,25.2148438 10,25.4976988 L10,26.6339746 L10,26.6339746 L9.01595628,26.0658367 C8.77791062,25.928401 8.46896969,26.0178477 8.33493649,26.25 C8.1968653,26.4891463 8.27099664,26.7904346 8.51595628,26.9318621 L9.5,27.5 L8.51595628,28.0681379 C8.27791062,28.2055736 8.20090329,28.5178477 8.33493649,28.75 C8.47300768,28.9891463 8.77099664,29.0755908 9.01595628,28.9341633 L10,28.3660254 L10,29.5023012 C10,29.7771727 10.2319336,30 10.5,30 C10.7761424,30 11,29.7851562 11,29.5023012 L11,28.3660254 L11.9840437,28.9341633 C12.2220894,29.071599 12.5310303,28.9821523 12.6650635,28.75 C12.8031347,28.5108537 12.7290034,28.2095654 12.4840437,28.0681379 L11.5,27.5 L12.4840437,26.9318621 C12.7220894,26.7944264 12.7990967,26.4821523 12.6650635,26.25 C12.5269923,26.0108537 12.2290034,25.9244092 11.9840437,26.0658367 L11,26.6339746 L11,26.6339746 L11,26.6339746 Z M23,26.6339746 L23,25.4976988 C23,25.2228273 22.7680664,25 22.5,25 C22.2238576,25 22,25.2148438 22,25.4976988 L22,26.6339746 L22,26.6339746 L21.0159563,26.0658367 C20.7779106,25.928401 20.4689697,26.0178477 20.3349365,26.25 C20.1968653,26.4891463 20.2709966,26.7904346 20.5159563,26.9318621 L21.5,27.5 L20.5159563,28.0681379 C20.2779106,28.2055736 20.2009033,28.5178477 20.3349365,28.75 C20.4730077,28.9891463 20.7709966,29.0755908 21.0159563,28.9341633 L22,28.3660254 L22,29.5023012 C22,29.7771727 22.2319336,30 22.5,30 C22.7761424,30 23,29.7851562 23,29.5023012 L23,28.3660254 L23.9840437,28.9341633 C24.2220894,29.071599 24.5310303,28.9821523 24.6650635,28.75 C24.8031347,28.5108537 24.7290034,28.2095654 24.4840437,28.0681379 L23.5,27.5 L24.4840437,26.9318621 C24.7220894,26.7944264 24.7990967,26.4821523 24.6650635,26.25 C24.5269923,26.0108537 24.2290034,25.9244092 23.9840437,26.0658367 L23,26.6339746 L23,26.6339746 L23,26.6339746 Z M17,27.6339746 L17,26.4976988 C17,26.2228273 16.7680664,26 16.5,26 C16.2238576,26 16,26.2148438 16,26.4976988 L16,27.6339746 L16,27.6339746 L15.0159563,27.0658367 C14.7779106,26.928401 14.4689697,27.0178477 14.3349365,27.25 C14.1968653,27.4891463 14.2709966,27.7904346 14.5159563,27.9318621 L15.5,28.5 L14.5159563,29.0681379 C14.2779106,29.2055736 14.2009033,29.5178477 14.3349365,29.75 C14.4730077,29.9891463 14.7709966,30.0755908 15.0159563,29.9341633 L16,29.3660254 L16,30.5023012 C16,30.7771727 16.2319336,31 16.5,31 C16.7761424,31 17,30.7851562 17,30.5023012 L17,29.3660254 L17.9840437,29.9341633 C18.2220894,30.071599 18.5310303,29.9821523 18.6650635,29.75 C18.8031347,29.5108537 18.7290034,29.2095654 18.4840437,29.0681379 L17.5,28.5 L18.4840437,27.9318621 C18.7220894,27.7944264 18.7990967,27.4821523 18.6650635,27.25 C18.5269923,27.0108537 18.2290034,26.9244092 17.9840437,27.0658367 L17,27.6339746 L17,27.6339746 L17,27.6339746 Z M19.5,0 C19.2238576,0 19,0.215752602 19,0.495388985 L19,2.50461102 C19,2.7782068 19.2319336,3 19.5,3 C19.7761424,3 20,2.7842474 20,2.50461102 L20,0.495388985 C20,0.221793203 19.7680664,0 19.5,0 L19.5,0 Z M26.2330514,2.78892122 C26.0377893,2.59365907 25.7269379,2.58792796 25.5292051,2.78566074 L24.1084706,4.20639526 C23.9150092,4.3998567 23.9221795,4.72068999 24.1117311,4.91024156 C24.3069932,5.10550371 24.6178446,5.11123483 24.8155774,4.91350204 L26.2363119,3.49276752 C26.4297733,3.29930609 26.422603,2.97847279 26.2330514,2.78892122 L26.2330514,2.78892122 Z M29.0219727,9.52197266 C29.0219727,9.24583028 28.8062201,9.02197266 28.5265837,9.02197266 L26.5173616,9.02197266 C26.2437659,9.02197266 26.0219727,9.25390625 26.0219727,9.52197266 C26.0219727,9.79811503 26.2377253,10.0219727 26.5173616,10.0219727 L28.5265837,10.0219727 C28.8001795,10.0219727 29.0219727,9.79003906 29.0219727,9.52197266 L29.0219727,9.52197266 Z M12.7669486,2.78892122 C12.5716864,2.98418337 12.5659553,3.29503474 12.7636881,3.49276752 L14.1844226,4.91350204 C14.377884,5.10696348 14.6987173,5.09979314 14.8882689,4.91024156 C15.0835311,4.71497942 15.0892622,4.40412805 14.8915294,4.20639526 L13.4707949,2.78566074 C13.2773334,2.59219931 12.9565001,2.59936965 12.7669486,2.78892122 L12.7669486,2.78892122 Z" id="cloud-sun-snowflakes" sketch:type="MSShapeGroup"></path>
        </g>
    </g>
</svg>

<svg width="32" height="32" viewBox="0 0 32 32" xmlns="http://www.w3.org/2000/svg"><path d="M7.101 15.102A4.006 4.006 0 0 0 4 19c0 2.21 1.798 4 4.003 4h16.994A4.004 4.004 0 0 0 29 19a4.006 4.006 0 0 0-3.042-3.884 4.5 4.5 0 0 0-7.606-3.832 6 6 0 0 0-11.25 3.818H7.1zm17.852-4.883a5.5 5.5 0 0 0-10.435-3.054 7 7 0 0 0-8.507 7.246A5.006 5.006 0 0 0 3 19c0 2.761 2.232 5 5 5h17c2.762 0 5-2.244 5-5a4.998 4.998 0 0 0-3-4.585 5.49 5.49 0 0 0-2.047-4.196zM24 9.6L24 9.5a4.5 4.5 0 0 0-8.51-2.044 7.02 7.02 0 0 1 3.124 2.361A5.474 5.474 0 0 1 21.5 9c.9 0 1.75.216 2.499.6zM11 26.634v-1.136a.504.504 0 0 0-.5-.498c-.276 0-.5.215-.5.498v1.136l-.984-.568a.504.504 0 0 0-.681.184.494.494 0 0 0 .181.682l.984.568-.984.568a.504.504 0 0 0-.181.682c.138.24.436.326.681.184l.984-.568v1.136c0 .275.232.498.5.498.276 0 .5-.215.5-.498v-1.136l.984.568a.504.504 0 0 0 .681-.184.494.494 0 0 0-.181-.682L11.5 27.5l.984-.568a.504.504 0 0 0 .181-.682.494.494 0 0 0-.681-.184l-.984.568zm12 0v-1.136a.504.504 0 0 0-.5-.498c-.276 0-.5.215-.5.498v1.136l-.984-.568a.504.504 0 0 0-.681.184.494.494 0 0 0 .181.682l.984.568-.984.568a.504.504 0 0 0-.181.682c.138.24.436.326.681.184l.984-.568v1.136c0 .275.232.498.5.498.276 0 .5-.215.5-.498v-1.136l.984.568a.504.504 0 0 0 .681-.184.494.494 0 0 0-.181-.682L23.5 27.5l.984-.568a.504.504 0 0 0 .181-.682.494.494 0 0 0-.681-.184l-.984.568zm-6 1v-1.136a.504.504 0 0 0-.5-.498c-.276 0-.5.215-.5.498v1.136l-.984-.568a.504.504 0 0 0-.681.184.494.494 0 0 0 .181.682l.984.568-.984.568a.504.504 0 0 0-.181.682c.138.24.436.326.681.184l.984-.568v1.136c0 .275.232.498.5.498.276 0 .5-.215.5-.498v-1.136l.984.568a.504.504 0 0 0 .681-.184.494.494 0 0 0-.181-.682L17.5 28.5l.984-.568a.504.504 0 0 0 .181-.682.494.494 0 0 0-.681-.184l-.984.568zM19.5 0c-.276 0-.5.216-.5.495v2.01c0 .273.232.495.5.495.276 0 .5-.216.5-.495V.495A.503.503 0 0 0 19.5 0zm6.733 2.789a.494.494 0 0 0-.704-.003l-1.42 1.42a.503.503 0 0 0 .003.704.494.494 0 0 0 .704.004l1.42-1.421a.503.503 0 0 0-.003-.704zm2.789 6.733c0-.276-.216-.5-.495-.5h-2.01a.503.503 0 0 0-.495.5c0 .276.216.5.495.5h2.01a.503.503 0 0 0 .495-.5zM12.767 2.789a.494.494 0 0 0-.003.704l1.42 1.42a.503.503 0 0 0 .704-.003.494.494 0 0 0 .004-.704l-1.421-1.42a.503.503 0 0 0-.704.003z" fill="#929292" fill-rule="evenodd"/></svg>
